svgs/solid/cactus.svg

<svg xmlns="http://www.w3.org/2000/svg" viewBox="0 0 512 512"><!--! Font Awesome Pro 6.6.0 by @fontawesome - https://fontawesome.com License - https://fontawesome.com/license (Commercial License) Copyright 2024 Fonticons, Inc. --><path d="M160 96c0-53 43-96 96-96s96 43 96 96l0 256 48 0c8.8 0 16-7.2 16-16l0-64c0-26.5 21.5-48 48-48s48 21.5 48 48l0 64c0 61.9-50.1 112-112 112l-48 0 0 16c0 26.5-21.5 48-48 48l-96 0c-26.5 0-48-21.5-48-48l0-144-48 0C50.1 320 0 269.9 0 208l0-64c0-26.5 21.5-48 48-48s48 21.5 48 48l0 64c0 8.8 7.2 16 16 16l48 0 0-128zm80 64a16 16 0 1 0 -32 0 16 16 0 1 0 32 0zm48 240a16 16 0 1 0 0-32 16 16 0 1 0 0 32z"/></svg>

<svg xmlns="http://www.w3.org/2000/svg" viewBox="0 0 512 512"><!--! Font Awesome Pro 6.5.2 by @fontawesome - https://fontawesome.com License - https://fontawesome.com/license (Commercial License) Copyright 2024 Fonticons, Inc. --><path d="M160 96c0-53 43-96 96-96s96 43 96 96V352h48c8.8 0 16-7.2 16-16V272c0-26.5 21.5-48 48-48s48 21.5 48 48v64c0 61.9-50.1 112-112 112H352v16c0 26.5-21.5 48-48 48H208c-26.5 0-48-21.5-48-48V320H112C50.1 320 0 269.9 0 208V144c0-26.5 21.5-48 48-48s48 21.5 48 48v64c0 8.8 7.2 16 16 16h48V96zm80 64a16 16 0 1 0 -32 0 16 16 0 1 0 32 0zm48 240a16 16 0 1 0 0-32 16 16 0 1 0 0 32z"/></svg>
